frontend/src/assets/CookLogo.svg

<svg width="158" height="34" viewBox="0 0 158 34" fill="none" xmlns="http://www.w3.org/2000/svg">
<g clip-path="url(#clip0_217_254)">
<path d="M100.64 24.0499L100.68 19.3399H100.65L98.9198 24.0499H97.7898L96.0998 19.3399H96.0698L96.1098 24.0499H94.5898V17.3999H96.8798L98.3998 21.6599H98.4398L99.8898 17.3999H102.22V24.0499H100.65H100.64Z" fill="#565868"/>
<path d="M105.29 24.0499V17.3999H109.77V18.7599H106.84V20.0099H109.61V21.2999H106.84V22.6799H109.94V24.0499H105.29Z" fill="#565868"/>
<path d="M115.23 24.0499H112.74V17.3999H115.15C117.04 17.3999 118.96 18.1899 118.96 20.7099C118.96 23.0499 117.06 24.0499 115.22 24.0499H115.23ZM115.12 18.7699H114.32V22.6599H115.08C116.23 22.6599 117.29 22.1899 117.29 20.7099C117.29 19.2299 116.23 18.7799 115.12 18.7799V18.7699Z" fill="#565868"/>
<path d="M121.51 24.0499V17.3999H123.13V24.0499H121.51Z" fill="#565868"/>
<path d="M129.27 24.2302C127.22 24.2302 125.68 22.8002 125.68 20.7202C125.68 18.6402 127.26 17.2202 129.3 17.2202C130.23 17.2202 131.24 17.5602 131.8 18.2002L130.71 19.2902C130.41 18.8802 129.87 18.6802 129.36 18.6802C128.24 18.6802 127.44 19.5402 127.44 20.7202C127.44 21.9002 128.22 22.7602 129.33 22.7602C129.96 22.7602 130.46 22.4802 130.74 22.0802L131.86 23.1302C131.28 23.8102 130.39 24.2302 129.27 24.2302Z" fill="#565868"/>
<path d="M138.97 24.0499L138.45 22.7399H135.87L135.38 24.0499H133.63L136.43 17.3999H137.99L140.76 24.0499H138.97ZM137.18 19.1799L136.33 21.4599H138.01L137.18 19.1799Z" fill="#565868"/>
<path d="M143.05 24.0499V17.3999H144.67V22.6499H147.25V24.0499H143.05Z" fill="#565868"/>
<path d="M73.9003 10.61C73.9003 10.22 73.6203 9.97998 73.1403 9.97998H72.2803V11.97H72.7803V11.22H73.0303L73.4503 11.96H74.0403L73.5103 11.13C73.7503 11.04 73.8903 10.84 73.8903 10.6L73.9003 10.61ZM73.3903 10.61C73.3903 10.76 73.2503 10.85 73.1303 10.85H72.7903V10.4H73.1303C73.2403 10.4 73.3903 10.46 73.3903 10.61Z" fill="#565868"/>
<path d="M73.0403 9.25C72.0703 9.25 71.2803 10.03 71.2803 11C71.2803 11.97 72.0503 12.73 73.0403 12.73C74.0303 12.73 74.8003 11.97 74.8003 11C74.8003 10.03 74.0103 9.25 73.0403 9.25ZM73.0403 12.44C72.2403 12.44 71.5903 11.79 71.5903 10.99C71.5903 10.19 72.2403 9.54 73.0403 9.54C73.8403 9.54 74.4903 10.19 74.4903 10.99C74.4903 11.79 73.8403 12.44 73.0403 12.44Z" fill="#565868"/>
<path d="M67.5701 11.6797L64.0901 15.1097L68.4001 20.9897C69.4401 22.5397 70.0001 23.3497 71.3101 23.3097V23.9997H64.8501V23.3097C66.0701 23.2697 66.4701 23.1697 66.4701 22.7797C66.4701 22.4797 65.0901 20.4597 64.1801 19.1597C63.6701 18.4397 62.8101 17.3597 62.3801 16.7797L61.2601 17.7397V20.8897C61.2601 22.3997 61.5301 23.2197 63.3101 23.3097V23.9997H56.8901V23.3097C58.6701 23.2297 58.9401 22.4197 58.9401 20.6597V11.8197C58.9401 10.1397 58.4401 9.86971 56.8901 9.75971V9.19971H63.3601V9.75971C61.5801 9.86971 61.2701 10.2197 61.2701 11.8197V16.2297C65.0101 12.8097 66.8301 11.2797 66.8301 10.5497C66.8301 10.1297 66.2701 9.75971 65.7001 9.75971V9.19971H70.4201V10.0097C69.7901 10.0097 69.2001 10.1797 67.5801 11.6797H67.5701Z" fill="#565868"/>
<path fill-rule="evenodd" clip-rule="evenodd" d="M49.2203 24.0699C53.4803 24.0699 56.9103 21.2399 56.9103 16.6399C56.9103 11.6699 53.0703 9.16992 49.2203 9.16992C45.3703 9.16992 41.5303 11.6699 41.5303 16.6399C41.5303 21.2399 44.9603 24.0699 49.2203 24.0699ZM49.2203 23.1599C46.5003 23.1599 44.2103 21.3699 44.2103 16.6199C44.2103 11.8699 46.7203 10.0799 49.2203 10.0799C51.7203 10.0799 54.2303 11.6999 54.2303 16.6199C54.2303 21.5399 51.9303 23.1599 49.2203 23.1599Z" fill="#565868"/>
<path fill-rule="evenodd" clip-rule="evenodd" d="M32.1402 24.0699C36.4002 24.0699 39.8402 21.2399 39.8402 16.6399C39.8402 11.6699 36.0002 9.16992 32.1402 9.16992C28.2802 9.16992 24.4502 11.6699 24.4502 16.6399C24.4502 21.2399 27.8902 24.0699 32.1402 24.0699ZM32.1402 23.1599C29.4302 23.1599 27.1302 21.3699 27.1302 16.6199C27.1302 11.8699 29.6402 10.0799 32.1402 10.0799C34.6402 10.0799 37.1602 11.6999 37.1602 16.6199C37.1602 21.5399 34.8602 23.1599 32.1402 23.1599Z" fill="#565868"/>
<path d="M22.3302 19.6399C22.3302 19.6399 22.2702 22.9799 18.1902 22.9799C15.6002 22.9799 13.1502 21.4299 13.1502 16.6699C13.1502 13.4399 14.0502 12.1399 14.8602 11.2799C15.7202 10.3599 16.9202 10.1699 17.9402 10.1699C20.4702 10.1699 21.6902 11.5699 22.2002 13.9299H23.0402L22.8902 9.46992H22.2902C21.9902 10.0999 21.4002 9.91992 21.3002 9.87992C21.0002 9.76992 19.7802 9.16992 17.8502 9.16992C14.1302 9.16992 10.4902 11.7799 10.4902 16.6199C10.4902 21.9999 14.2402 24.0699 17.7202 24.0699C23.0502 24.0699 23.1502 19.6899 23.1702 19.6399H22.3302Z" fill="#565868"/>
<path d="M90.46 9.22H156.22V31.77H76.27L90.46 9.22ZM1.38 1.34H156.22V7.87H89.69L74.66 31.77H1.38V1.34ZM0 0V33.12H157.6V7.88V0H0Z" fill="#565868"/>
</g>
<defs>
<clipPath id="clip0_217_254">
<rect width="157.6" height="33.12" fill="white"/>
</clipPath>
</defs>
</svg>

<?xml version="1.0" encoding="UTF-8"?><svg id="Layer_1" xmlns="http://www.w3.org/2000/svg" viewBox="0 0 157.6 33.12"><defs><style>.cls-1{fill-rule:evenodd;}.cls-1,.cls-2{fill:#ffffff;stroke-width:0px;}</style></defs><path class="cls-2" d="m100.64,24.05l.04-4.71h-.03l-1.73,4.71h-1.13l-1.69-4.71h-.03l.04,4.71h-1.52v-6.65h2.29l1.52,4.26h.04l1.45-4.26h2.33v6.65h-1.57Z"/><path class="cls-2" d="m105.29,24.05v-6.65h4.48v1.36h-2.93v1.25h2.77v1.29h-2.77v1.38h3.1v1.37h-4.65Z"/><path class="cls-2" d="m115.23,24.05h-2.49v-6.65h2.41c1.89,0,3.81.79,3.81,3.31,0,2.34-1.9,3.34-3.74,3.34Zm-.11-5.28h-.8v3.89h.76c1.15,0,2.21-.47,2.21-1.95s-1.06-1.93-2.17-1.93Z"/><path class="cls-2" d="m121.51,24.05v-6.65h1.62v6.65h-1.62Z"/><path class="cls-2" d="m129.27,24.23c-2.05,0-3.59-1.43-3.59-3.51s1.58-3.5,3.62-3.5c.93,0,1.94.34,2.5.98l-1.09,1.09c-.3-.41-.84-.61-1.35-.61-1.12,0-1.92.86-1.92,2.04s.78,2.04,1.89,2.04c.63,0,1.13-.28,1.41-.68l1.12,1.05c-.58.68-1.47,1.1-2.59,1.1Z"/><path class="cls-2" d="m138.97,24.05l-.52-1.31h-2.58l-.49,1.31h-1.75l2.8-6.65h1.56l2.77,6.65h-1.79Zm-1.79-4.87l-.85,2.28h1.68l-.83-2.28Z"/><path class="cls-2" d="m143.05,24.05v-6.65h1.62v5.25h2.58v1.4h-4.2Z"/><g id="COOK"><g id="R_ball"><path id="R_ball_R" class="cls-2" d="m73.9,10.61c0-.39-.28-.63-.76-.63h-.86v1.99h.5v-.75h.25l.42.74h0s.59,0,.59,0l-.53-.83c.24-.09.38-.29.38-.53Zm-.51,0c0,.15-.14.24-.26.24h-.34v-.45h.34c.11,0,.26.06.26.21Z"/><path id="R_ball_circle" class="cls-2" d="m73.04,9.25c-.97,0-1.76.78-1.76,1.75s.77,1.73,1.76,1.73,1.76-.76,1.76-1.73-.79-1.75-1.76-1.75Zm0,3.19c-.8,0-1.45-.65-1.45-1.45s.65-1.45,1.45-1.45,1.45.65,1.45,1.45-.65,1.45-1.45,1.45Z"/></g><path id="K" class="cls-2" d="m67.57,11.68l-3.48,3.43,4.31,5.88c1.04,1.55,1.6,2.36,2.91,2.32v.69h-6.46v-.69c1.22-.04,1.62-.14,1.62-.53,0-.3-1.38-2.32-2.29-3.62-.51-.72-1.37-1.8-1.8-2.38l-1.12.96v3.15c0,1.51.27,2.33,2.05,2.42v.69h-6.42v-.69c1.78-.08,2.05-.89,2.05-2.65v-8.84c0-1.68-.5-1.95-2.05-2.06v-.56h6.47v.56c-1.78.11-2.09.46-2.09,2.06v4.41c3.74-3.42,5.56-4.95,5.56-5.68,0-.42-.56-.79-1.13-.79v-.56h4.72v.81c-.63,0-1.22.17-2.84,1.67h0Z"/><path id="O_two" class="cls-1" d="m49.22,24.07c4.26,0,7.69-2.83,7.69-7.43,0-4.97-3.84-7.47-7.69-7.47s-7.69,2.5-7.69,7.47c0,4.6,3.43,7.43,7.69,7.43h0Zm0-.91c-2.72,0-5.01-1.79-5.01-6.54s2.51-6.54,5.01-6.54,5.01,1.62,5.01,6.54-2.3,6.54-5.01,6.54h0Z"/><path id="O_one" class="cls-1" d="m32.14,24.07c4.26,0,7.7-2.83,7.7-7.43,0-4.97-3.84-7.47-7.7-7.47s-7.69,2.5-7.69,7.47c0,4.6,3.44,7.43,7.69,7.43h0Zm0-.91c-2.71,0-5.01-1.79-5.01-6.54s2.51-6.54,5.01-6.54,5.02,1.62,5.02,6.54-2.3,6.54-5.02,6.54h0Z"/><path id="C" class="cls-2" d="m22.33,19.64s-.06,3.34-4.14,3.34c-2.59,0-5.04-1.55-5.04-6.31,0-3.23.9-4.53,1.71-5.39.86-.92,2.06-1.11,3.08-1.11,2.53,0,3.75,1.4,4.26,3.76h.84l-.15-4.46h-.6c-.3.63-.89.45-.99.41-.3-.11-1.52-.71-3.45-.71-3.72,0-7.36,2.61-7.36,7.45,0,5.38,3.75,7.45,7.23,7.45,5.33,0,5.43-4.38,5.45-4.43h-.84Z"/></g><path class="cls-2" d="m90.46,9.22h65.76v22.55h-79.95l14.19-22.55ZM1.38,1.34h154.84v6.53h-66.53l-15.03,23.9H1.38V1.34ZM0,0v33.12h157.6s0,0,0,0V7.88h0V0H0Z"/></svg>
